X:1
T:Minuet in F Major BWV Anh. 113
T:Minuet in F Major
T:Johann Sebastian Bach
T:BWV Anh. 113
C:Johann Sebastian Bach
%%score { 1 | 2 }
L:1/8
M:3/4
K:F
V:1 treble nm="Piano" snm="Pno."
V:2 bass 
V:1
 c2 d/e/f e2 | (3fed c4 | (3d_ed (3cdc (3BcB |{B} A4 G2 | Ac Fc Gc | Ac Bc Gc | Ac Fc Gc | %7
 Ac Bc Gc | Ac de fd | c=B AG (c/d/c/B/) | cf e2 Td/c/d | c6 :: g2 fe fd | eg b2 z2 | a2 gf ed | %15
{d} ^c6 | ^cd ec de | A2 A2 A2 | ^cd ec de | G2 G2 G2 | ^cd ec de | Ad cB AG | F2 G2 E2 | D6 | %24
 cf ef _ef | af df cf | dg ^fg =fg | bg eg cB | Af ga gf | Bg ab ag | cc' ba ga |{g} f6 :| %32
V:2
 F,2 A,2 G,2 | A,2 F,G, A,F, | B,2 C2 C,2 | F,2 C,D, E,C, | F,2 A,,2 G,,2 | F,,2 G,,2 E,,2 | %6
 F,,2 A,,2 G,,2 | F,,2 G,,2 E,,2 | F,,2 F,2 D,2 | G,2 E,2 A,2 | F,2 G,2 G,,2 | C,6 :: %12
 C,2 G,2 G,,2 | C,2 E,D, E,C, | F,2 B,2 G,2 | A,2 E,2 ^C,2 | A,,2 A,2 E,2 | ^C,D, E,C, D,E, | %18
 A,,2 A,,2 A,,2 | ^C,D, E,C, D,E, | G,,2 G,,2 G,,2 | F,,2 F,2 G,2 | A,4 A,,2 | D,D CB, A,G, | %24
 A,4 G,2 | F,2 B,2 A,2 | B,4 A,2 | G,2 C2 E,2 | F,2 z2 z2 | G,2 z2 z2 | A,2 B,2 C2 | F,6 :| %32

